packages/webapp/public/images/template-logos/bitbucket.svg

<svg width="62" height="62" viewBox="0 0 62 62" fill="none" xmlns="http://www.w3.org/2000/svg">
<path d="M11.0625 11.1788C10.8618 11.1762 10.663 11.2176 10.4801 11.3C10.2971 11.3824 10.1344 11.5039 10.0033 11.6559C9.8723 11.8079 9.77612 11.9868 9.72156 12.1799C9.667 12.373 9.65538 12.5757 9.6875 12.7738L15.5244 48.2076C15.5971 48.6412 15.8203 49.0353 16.1547 49.3207C16.4892 49.6061 16.9135 49.7646 17.3531 49.7682H45.355C45.6846 49.7724 46.0047 49.6582 46.2571 49.4462C46.5095 49.2342 46.6773 48.9386 46.73 48.6132L52.5669 12.7807C52.599 12.5826 52.5874 12.3799 52.5328 12.1868C52.4783 11.9936 52.3821 11.8148 52.251 11.6628C52.12 11.5108 51.9573 11.3893 51.7743 11.3069C51.5913 11.2245 51.3925 11.1831 51.1919 11.1857L11.0625 11.1788ZM35.6406 36.7882H26.7031L24.2831 24.1451H37.8063L35.6406 36.7882Z" fill="#2684FF"/>
<path d="M50.7106 24.1455H37.8062L35.6406 36.7886H26.7031L16.15 49.3149C16.4845 49.6041 16.9109 49.7649 17.3531 49.7686H45.3619C45.6914 49.7729 46.0116 49.6586 46.264 49.4466C46.5163 49.2346 46.6842 48.939 46.7369 48.6136L50.7106 24.1455Z" fill="url(#paint0_linear_496_926)"/>
<defs>
<linearGradient id="paint0_linear_496_926" x1="53.6944" y1="27.6861" x2="32.3681" y2="44.3305" gradientUnits="userSpaceOnUse">
<stop offset="0.18" stop-color="#0052CC"/>
<stop offset="1" stop-color="#2684FF"/>
</linearGradient>
</defs>
</svg>

<svg xmlns="http://www.w3.org/2000/svg" width="62" height="62" fill="none"><path d="M11.063 11.179c-.201-.003-.399.039-.582.121s-.346.204-.477.356-.227.331-.282.524-.066.396-.034.594l5.837 35.434a1.87 1.87 0 0 0 1.829 1.561h28.002c.33.004.65-.11.902-.322s.42-.508.473-.833l5.837-35.832c.032-.198.021-.401-.034-.594s-.151-.372-.282-.524-.294-.273-.477-.356-.382-.124-.582-.121l-40.129-.007zm24.578 25.609h-8.938l-2.42-12.643h13.523l-2.166 12.643z" fill="#2684ff"/><path d="M50.711 24.145H37.806l-2.166 12.643h-8.937L16.15 49.314c.335.289.761.45 1.203.454h28.009c.33.004.65-.11.902-.322s.42-.508.473-.833l3.974-24.468z" fill="url(#A)"/><defs><linearGradient id="A" x1="53.694" y1="27.686" x2="32.368" y2="44.33" gradientUnits="userSpaceOnUse"><stop offset=".18" stop-color="#0052cc"/><stop offset="1" stop-color="#2684ff"/></linearGradient></defs></svg>
